images/sale__4.svg

<svg width="80" height="80" viewBox="0 0 80 80" fill="none" xmlns="http://www.w3.org/2000/svg">
<circle cx="40" cy="40" r="40" fill="white"/>
<path fill-rule="evenodd" clip-rule="evenodd" d="M28.3261 4.23183C28.3068 4.25161 28.2974 4.27667 28.2974 4.29914V7.61886C28.2974 7.64622 28.3073 7.6677 28.3249 7.68505C28.3445 7.7043 28.3681 7.71261 28.3878 7.71261H51.7221C51.7514 7.71261 51.7666 7.70326 51.7764 7.69365C51.7854 7.68481 51.8068 7.65856 51.8125 7.5979V4.29914C51.8125 4.27178 51.8027 4.25029 51.785 4.23294C51.7654 4.2137 51.7418 4.20539 51.7221 4.20539H28.3878C28.3634 4.20539 28.3433 4.21407 28.3261 4.23183ZM27.092 4.29914C27.092 3.61075 27.6465 3 28.3878 3H51.7221C52.4142 3 53.0179 3.56135 53.0179 4.29914V7.63551L53.017 7.65213C52.9773 8.36908 52.4317 8.918 51.7221 8.918H28.3878C27.6957 8.918 27.092 8.35665 27.092 7.61886V4.29914Z" fill="#010066"/>
<path fill-rule="evenodd" clip-rule="evenodd" d="M25.939 14.9555C28.7394 14.9555 31.2507 12.0221 31.2507 8.05981H32.4561C32.4561 12.4084 29.6537 16.1609 25.939 16.1609V14.9555Z" fill="#010066"/>
<path fill-rule="evenodd" clip-rule="evenodd" d="M54.0786 16.1609C50.3639 16.1609 47.5615 12.4084 47.5615 8.05981H48.7669C48.7669 12.0221 51.2782 14.9555 54.0786 14.9555V16.1609Z" fill="#010066"/>
<path fill-rule="evenodd" clip-rule="evenodd" d="M41.9799 15.2144C42.4229 13.6795 42.4796 11.3552 42.1147 8.65143L43.3093 8.49023C43.6838 11.2652 43.6481 13.7812 43.138 15.5486C42.8836 16.4304 42.4921 17.1924 41.9088 17.6855C41.2951 18.2044 40.5282 18.3747 39.6785 18.163L39.9698 16.9934C40.4716 17.1183 40.8339 17.0158 41.1306 16.765C41.4577 16.4884 41.7579 15.9838 41.9799 15.2144Z" fill="#010066"/>
<path fill-rule="evenodd" clip-rule="evenodd" d="M39.4523 35.6432L39.2444 3.95493L40.4497 3.94702L40.6577 35.6353L39.4523 35.6432Z" fill="#010066"/>
<path d="M47.5173 76.335C47.7484 76.335 47.9563 76.1261 47.9563 75.8939V18.6925C47.9563 18.4604 47.7484 18.2515 47.5173 18.2515C47.2863 18.2515 47.0784 18.4604 47.0784 18.6925V75.9171C47.1015 76.1261 47.2863 76.335 47.5173 76.335Z" fill="#010066"/>
<path d="M32.7544 76.3349C32.9855 76.3349 33.1934 76.126 33.1934 75.8938V18.0192C33.1934 17.7871 32.9855 17.5781 32.7544 17.5781C32.5234 17.5781 32.3155 17.7871 32.3155 18.0192V75.9635C32.2924 76.126 32.5003 76.3349 32.7544 76.3349Z" fill="#010066"/>
<path d="M25.9159 15.5817C26.1469 15.6514 26.4011 15.5585 26.4704 15.2799L28.6883 8.50119C28.7576 8.26904 28.6652 8.01368 28.388 7.94404C28.1569 7.87439 27.9028 7.96725 27.8335 8.24583L25.6156 15.0246C25.5 15.2799 25.6387 15.5353 25.9159 15.5817Z" fill="#010066"/>
<path d="M54.4715 15.9528C54.2405 16.0225 53.9864 15.9296 53.9171 15.651L51.7223 8.84909C51.6529 8.61695 51.7454 8.36158 52.0226 8.29194C52.2536 8.22229 52.5078 8.31515 52.5771 8.59373L54.795 15.3725C54.8181 15.651 54.6795 15.8832 54.4715 15.9528Z" fill="#010066"/>
<path d="M52.6464 75.1739C52.8774 75.1739 53.0854 75.0114 53.0854 74.7329L54.7488 15.651C54.7488 15.4189 54.5871 15.21 54.3098 15.21C54.0788 15.21 53.8709 15.3725 53.8709 15.651L52.1843 74.7561C52.2305 74.9418 52.3923 75.1739 52.6464 75.1739Z" fill="#010066"/>
<path d="M27.6255 75.6151C27.3945 75.6151 27.1865 75.4525 27.1865 75.174L25.5 15.5815C25.5 15.3493 25.6617 15.1404 25.939 15.1404C26.17 15.1404 26.3779 15.3029 26.3779 15.5815L28.0414 75.174C28.0645 75.4061 27.8334 75.6151 27.6255 75.6151Z" fill="#010066"/>
<path d="M32.6852 76.5436L27.5563 75.6614C27.3253 75.6382 27.1173 75.3596 27.1866 75.1043C27.2097 74.8721 27.487 74.6632 27.7411 74.7328L32.87 75.615C33.1011 75.6382 33.309 75.9168 33.2397 76.1722C33.1473 76.4507 32.9162 76.6132 32.6852 76.5436Z" fill="#010066"/>
<path d="M47.656 76.6366L52.6694 75.4062C52.9004 75.3366 53.1083 75.1045 53.0159 74.8259C52.9466 74.5937 52.7156 74.3848 52.4383 74.4776L47.4249 75.708C47.1939 75.7777 46.986 76.0098 47.0784 76.2884C47.1477 76.5438 47.4249 76.6831 47.656 76.6366Z" fill="#010066"/>
<path d="M32.9855 76.5436L38.1144 75.6614C38.3454 75.6382 38.5534 75.3596 38.4841 75.1043C38.461 74.8721 38.1837 74.6632 37.9296 74.7328L32.8007 75.615C32.5696 75.6382 32.3617 75.9168 32.431 76.1722C32.4772 76.4507 32.7545 76.6132 32.9855 76.5436Z" fill="#010066"/>
<path d="M47.1707 76.6366L42.1573 75.4062C41.9263 75.3366 41.7184 75.1045 41.8108 74.8259C41.8801 74.5937 42.1111 74.3848 42.3884 74.4776L47.4018 75.708C47.6328 75.7777 47.8407 76.0098 47.7483 76.2884C47.7252 76.5438 47.4942 76.6831 47.1707 76.6366Z" fill="#010066"/>
<path fill-rule="evenodd" clip-rule="evenodd" d="M40.0987 34.4332C40.4314 34.4446 40.6918 34.7236 40.6804 35.0562C40.6558 35.7741 40.4096 40.7927 40.0251 48.6324C39.6854 55.5581 39.2377 64.6855 38.7394 74.9942C38.7233 75.3267 38.4407 75.5831 38.1083 75.5671C37.7758 75.551 37.5193 75.2685 37.5354 74.936C38.0355 64.5912 38.4842 55.4418 38.8241 48.5128C39.2067 40.7118 39.4513 35.725 39.4757 35.0149C39.4871 34.6822 39.7661 34.4218 40.0987 34.4332Z" fill="#010066"/>
<path fill-rule="evenodd" clip-rule="evenodd" d="M40.0727 34.1778C40.4054 34.1875 40.6672 34.4651 40.6575 34.7978C40.6353 35.5542 40.8692 40.0205 41.246 47.1159C41.2627 47.4297 41.2796 47.7485 41.2968 48.0723C41.6671 55.0424 42.1591 64.304 42.667 74.8432C42.683 75.1757 42.4265 75.4582 42.094 75.4742C41.7615 75.4903 41.479 75.2337 41.463 74.9012C40.9553 64.3651 40.4634 55.106 40.0931 48.1359C40.0759 47.8122 40.059 47.4935 40.0423 47.1799C39.6683 40.1375 39.4285 35.5848 39.4526 34.7626C39.4623 34.4298 39.7399 34.168 40.0727 34.1778Z" fill="#010066"/>
</svg>

<svg width="80" height="80" fill="none" xmlns="http://www.w3.org/2000/svg"><circle cx="40" cy="40" r="40" fill="#fff"/><path fill-rule="evenodd" clip-rule="evenodd" d="M28.326 4.232a.098.098 0 0 0-.029.067v3.32c0 .027.01.049.028.066.02.02.043.028.063.028h23.334c.03 0 .045-.01.054-.02.01-.008.03-.034.036-.095V4.299a.089.089 0 0 0-.027-.066.092.092 0 0 0-.063-.028H28.388a.082.082 0 0 0-.062.027Zm-1.234.067A1.3 1.3 0 0 1 28.388 3h23.334a1.3 1.3 0 0 1 1.296 1.3v3.336l-.001.016c-.04.717-.585 1.266-1.295 1.266H28.388a1.3 1.3 0 0 1-1.296-1.3V4.3Z" fill="#010066"/><path fill-rule="evenodd" clip-rule="evenodd" d="M25.939 14.956c2.8 0 5.312-2.934 5.312-6.896h1.205c0 4.348-2.802 8.1-6.517 8.1v-1.204ZM54.079 16.16c-3.715 0-6.517-3.752-6.517-8.1h1.205c0 3.962 2.511 6.896 5.312 6.896v1.205ZM41.98 15.214c.443-1.534.5-3.859.135-6.563l1.194-.16c.375 2.774.34 5.29-.171 7.058-.254.881-.646 1.643-1.23 2.137-.613.518-1.38.689-2.23.477l.292-1.17c.502.125.864.023 1.16-.228.328-.277.628-.781.85-1.55Z" fill="#010066"/><path fill-rule="evenodd" clip-rule="evenodd" d="m39.452 35.643-.208-31.688 1.206-.008.208 31.688-1.206.008Z" fill="#010066"/><path d="M47.517 76.335a.455.455 0 0 0 .44-.441V18.692a.455.455 0 0 0-.44-.44.455.455 0 0 0-.439.44v57.225c.023.21.208.418.44.418ZM32.754 76.335a.455.455 0 0 0 .44-.441V18.019a.456.456 0 0 0-.44-.44.456.456 0 0 0-.438.44v57.945c-.024.162.184.37.438.37ZM25.916 15.582c.23.07.485-.024.554-.302L28.688 8.5c.07-.232-.023-.487-.3-.557-.231-.07-.485.023-.555.302l-2.217 6.779c-.116.255.023.51.3.557ZM54.471 15.953c-.23.07-.485-.023-.554-.302l-2.195-6.802c-.07-.232.023-.487.3-.557.232-.07.486.023.555.302l2.218 6.779c.023.278-.116.51-.324.58Z" fill="#010066"/><path d="M52.646 75.174a.425.425 0 0 0 .44-.441l1.663-59.082a.425.425 0 0 0-.44-.441.425.425 0 0 0-.438.441l-1.687 59.105c.047.186.208.418.462.418ZM27.625 75.615a.426.426 0 0 1-.439-.441L25.5 15.581c0-.232.162-.44.439-.44.231 0 .439.162.439.44l1.663 59.593c.023.232-.208.441-.416.441Z" fill="#010066"/><path d="m32.685 76.544-5.129-.883c-.23-.023-.439-.301-.37-.557.024-.232.301-.44.555-.371l5.129.882c.231.023.439.302.37.557-.093.279-.324.441-.555.372ZM47.656 76.637l5.013-1.23c.231-.07.44-.302.347-.581-.07-.232-.3-.441-.578-.348l-5.013 1.23c-.231.07-.439.302-.347.58.07.256.347.395.578.349Z" fill="#010066"/><path d="m32.986 76.544 5.128-.883c.231-.023.44-.301.37-.557-.023-.232-.3-.44-.554-.371l-5.13.882c-.23.023-.438.302-.369.557.046.279.324.441.555.372ZM47.17 76.637l-5.013-1.23c-.23-.07-.439-.302-.346-.581.07-.232.3-.441.577-.348l5.014 1.23c.23.07.439.302.346.58-.023.256-.254.395-.577.349Z" fill="#010066"/><path fill-rule="evenodd" clip-rule="evenodd" d="M40.099 34.433c.332.012.593.29.581.623-.024.718-.27 5.737-.655 13.576-.34 6.926-.787 16.054-1.286 26.362a.603.603 0 0 1-1.204-.058c.5-10.345.95-19.494 1.29-26.423.382-7.801.626-12.788.65-13.498a.603.603 0 0 1 .624-.582Z" fill="#010066"/><path fill-rule="evenodd" clip-rule="evenodd" d="M40.073 34.178c.332.01.594.287.584.62-.022.756.212 5.222.589 12.318l.05.956c.371 6.97.863 16.232 1.371 26.771a.603.603 0 1 1-1.204.058c-.508-10.536-1-19.795-1.37-26.765l-.05-.956c-.375-7.042-.614-11.595-.59-12.417a.603.603 0 0 1 .62-.585Z" fill="#010066"/></svg>
